X:211
T:score287
L:1/16
Q:1/4=120
M:3/8
I:linebreak $
K:C
!p! (ed!<(!.c2).c2!<)! | (g4 fe | d2f2B2 | (c2).G2).G2 |!<(! (ed.c2).c2!<)! | (g4 fe | defefd | %7
 c2) z2 z2 |] %8
